public/images/case-studies/megalot/feature2.svg

<svg width="64" height="64" viewBox="0 0 64 64" fill="none" xmlns="http://www.w3.org/2000/svg">
<path d="M51.6116 15.9108L59.567 7.95542L58.1074 6.49585L51.6116 12.9916L49.2447 10.6247L47.7852 12.0843L51.6116 15.9108Z" fill="#FF6B00"/>
<path d="M63.9979 10.3222C63.9979 4.63056 59.3674 0 53.6757 0C50.3086 0 47.3234 1.62782 45.4375 4.1289H3.09667C1.38937 4.1289 0 5.51827 0 7.22557V42.3212C0 44.0285 1.38937 45.4179 3.09667 45.4179H22.0917L22.1319 45.4984C22.5097 46.253 22.7089 47.0963 22.7089 47.9386V52.179C22.7089 53.2876 22.9691 54.3993 23.4625 55.3923L25.8056 60.1106V63.9515L44.3857 64V60.2128L46.0372 58.011C46.9693 56.7682 47.4823 55.2282 47.4823 53.6757V45.4179H56.7724C58.4797 45.4179 59.869 44.0285 59.869 42.3212V18.5604C62.3701 16.6746 63.9979 13.6894 63.9979 10.3222ZM53.6757 2.06445C58.2288 2.06445 61.9335 5.7691 61.9335 10.3222C61.9335 14.8754 58.2288 18.58 53.6757 18.58C49.1225 18.58 45.4179 14.8754 45.4179 10.3222C45.4179 5.7691 49.1225 2.06445 53.6757 2.06445ZM45.4375 16.5156H6.19335V10.3222H43.3534C43.3534 12.6479 44.1359 14.7877 45.4375 16.5156ZM45.4179 53.6757C45.4179 54.7853 45.0514 55.8846 44.3857 56.7724L42.3212 59.5253V61.9314L27.8701 61.8922V59.6265L25.3112 54.4736C24.9592 53.7645 24.7734 52.9717 24.7734 52.179V47.9386C24.7734 46.7773 24.4988 45.614 23.9786 44.5746L22.776 42.1695C22.7327 42.0817 22.7089 41.9816 22.7089 41.8836C22.7089 41.5316 22.9959 41.2456 23.446 41.2456C26.4549 41.2456 28.9023 43.6941 28.9023 46.703V48.4712V50.5357H30.9667V48.4712V46.703V30.9667C30.9667 30.398 31.4302 29.9345 31.999 29.9345C32.5677 29.9345 33.0312 30.398 33.0312 30.9667V40.2568V44.3857H35.0956V40.2568C35.0956 39.688 35.5591 39.2245 36.1279 39.2245C36.6966 39.2245 37.1601 39.688 37.1601 40.2568V44.3857H39.2245V40.2568C39.2245 39.688 39.688 39.2245 40.2568 39.2245C40.8255 39.2245 41.289 39.688 41.289 40.2568V42.3212V44.3857H43.3534V42.3212C43.3534 41.7525 43.8169 41.289 44.3857 41.289C44.9544 41.289 45.4179 41.7525 45.4179 42.3212V53.6757ZM57.8046 42.3212C57.8046 42.89 57.3411 43.3534 56.7724 43.3534H47.4823V42.3212C47.4823 40.6139 46.093 39.2245 44.3857 39.2245C43.9779 39.2245 43.5909 39.3082 43.2337 39.4516C42.8776 38.1355 41.6843 37.1601 40.2568 37.1601C39.4609 37.1601 38.7415 37.4708 38.1923 37.9652C37.6432 37.4698 36.9237 37.1601 36.1279 37.1601C35.7645 37.1601 35.4198 37.2344 35.0956 37.35V30.9667C35.0956 29.2594 33.7063 27.8701 31.999 27.8701C30.2917 27.8701 28.9023 29.2594 28.9023 30.9667V41.5543C27.5181 40.0978 25.5527 39.1812 23.3479 39.1812C21.8584 39.1812 20.6455 40.393 20.6445 41.8836C20.6445 42.3006 20.7436 42.7186 20.9294 43.0933L21.0605 43.3534H3.09667C2.52792 43.3534 2.06445 42.89 2.06445 42.3212V7.22557C2.06445 6.65682 2.52792 6.19335 3.09667 6.19335H44.2215C43.9336 6.84984 43.7085 7.53937 43.562 8.2578H4.1289V18.58H47.5081C49.2309 19.8703 51.3614 20.6445 53.6757 20.6445C55.1435 20.6445 56.5391 20.3317 57.8046 19.7764V42.3212Z" fill="#7F8284"/>
<path d="M45.418 37.1601H55.7402V22.709H45.418V37.1601ZM47.4824 24.7734H53.6758V35.0957H47.4824V24.7734Z" fill="#FF6B00"/>
<path d="M5 29V39" stroke="#FF6B00" stroke-width="2"/>
<path d="M9 31L9 39" stroke="#FF6B00" stroke-width="2"/>
<path d="M13 33L13 39" stroke="#FF6B00" stroke-width="2"/>
<path d="M17 29V39" stroke="#FF6B00" stroke-width="2"/>
</svg>

<svg xmlns="http://www.w3.org/2000/svg" width="64" height="64" fill="none" xmlns:v="https://vecta.io/nano"><path d="M51.612 15.911l7.955-7.955-1.46-1.46-6.496 6.496-2.367-2.367-1.459 1.46 3.826 3.826z" fill="#ff6b00"/><path d="M63.998 10.322C63.998 4.631 59.367 0 53.676 0c-3.367 0-6.352 1.628-8.238 4.129H3.097A3.1 3.1 0 0 0 0 7.226v35.096a3.1 3.1 0 0 0 3.097 3.097h18.995l.04.08c.378.755.577 1.598.577 2.44v4.24a7.26 7.26 0 0 0 .754 3.213l2.343 4.718v3.841l18.58.048v-3.787l1.651-2.202a7.27 7.27 0 0 0 1.445-4.335v-8.258h9.29a3.1 3.1 0 0 0 3.097-3.097V18.56c2.501-1.886 4.129-4.871 4.129-8.238zM53.676 2.064a8.27 8.27 0 0 1 8.258 8.258 8.27 8.27 0 0 1-8.258 8.258 8.27 8.27 0 0 1-8.258-8.258 8.27 8.27 0 0 1 8.258-8.258zm-8.238 14.451H6.193v-6.193h37.16c0 2.326.782 4.465 2.084 6.193zm-.02 37.16c0 1.11-.367 2.209-1.032 3.097l-2.065 2.753v2.406l-14.451-.039v-2.266l-2.559-5.153c-.352-.709-.538-1.502-.538-2.295v-4.24c0-1.161-.275-2.325-.795-3.364l-1.203-2.405c-.043-.088-.067-.188-.067-.286 0-.352.287-.638.737-.638 3.009 0 5.456 2.448 5.456 5.457v1.768 2.064h2.064v-2.064-1.768-15.736c0-.569.463-1.032 1.032-1.032s1.032.463 1.032 1.032v9.29 4.129h2.064v-4.129c0-.569.464-1.032 1.032-1.032s1.032.464 1.032 1.032v4.129h2.064v-4.129c0-.569.464-1.032 1.032-1.032s1.032.464 1.032 1.032v2.064 2.065h2.064v-2.065c0-.569.463-1.032 1.032-1.032s1.032.463 1.032 1.032v11.355zm12.387-11.355c0 .569-.464 1.032-1.032 1.032h-9.29v-1.032a3.1 3.1 0 0 0-3.097-3.097 3.08 3.08 0 0 0-1.152.227c-.356-1.316-1.549-2.291-2.977-2.291-.796 0-1.515.311-2.064.805-.549-.495-1.269-.805-2.064-.805-.363 0-.708.074-1.032.19v-6.383a3.1 3.1 0 0 0-3.097-3.097 3.1 3.1 0 0 0-3.097 3.097v10.588c-1.384-1.456-3.35-2.373-5.554-2.373a2.71 2.71 0 0 0-2.703 2.702 2.74 2.74 0 0 0 .285 1.21l.131.26H3.097c-.569 0-1.032-.463-1.032-1.032V7.226c0-.569.463-1.032 1.032-1.032h41.125c-.288.656-.513 1.346-.66 2.064H4.129V18.58h43.379c1.723 1.29 3.853 2.065 6.168 2.065a10.25 10.25 0 0 0 4.129-.868v22.545z" fill="#7f8284"/><path d="M45.418 37.16H55.74V22.709H45.418V37.16zm2.064-12.387h6.193v10.322h-6.193V24.773z" fill="#ff6b00"/><path d="M5 29v10m4-8v8m4-6v6m4-10v10" stroke="#ff6b00" stroke-width="2"/></svg>
